react_webviews/src/assets/mf.svg

<svg width="33" height="33" viewBox="0 0 33 33" fill="none" xmlns="http://www.w3.org/2000/svg">
<path fill-rule="evenodd" clip-rule="evenodd" d="M6.22147 18.9708C7.85523 14.6667 12.4299 11.3189 12.4299 11.3189H20.1793C24.3341 14.9538 26.7613 18.2537 27.0882 21.6493C27.4147 25.0451 26.3412 30.6407 15.651 30.4973C4.96079 30.3537 4.58761 23.2753 6.22147 18.9708ZM18.7878 19.0495H17.8071C17.7266 18.6745 17.5875 18.3221 17.3826 17.9997H18.7878C19.1904 17.9997 19.5197 17.6623 19.5197 17.2498C19.5197 16.8374 19.1904 16.5 18.7878 16.5H13.0644C12.6619 16.5 12.3325 16.8374 12.3325 17.2498C12.3325 17.6623 12.6619 17.9997 13.0644 17.9997H14.7039C15.3919 17.9997 15.992 18.4496 16.2628 19.0495H13.0644C12.6619 19.0495 12.3325 19.3869 12.3325 19.7993C12.3325 20.2117 12.6619 20.5492 13.0644 20.5492H16.2628C16.1677 20.7216 16.0579 20.8791 15.9261 21.0216C15.5968 21.3515 15.1576 21.5314 14.7039 21.5239H13.0644C12.6546 21.5314 12.3252 21.8689 12.3325 22.2888C12.3325 22.4912 12.4204 22.6862 12.5594 22.8287L16.6507 26.7953C16.9435 27.0803 17.4046 27.0653 17.6827 26.7654C17.9608 26.4654 17.9462 25.993 17.6534 25.7081L14.8942 23.0311C15.67 22.9861 16.4019 22.6562 16.9508 22.0938C17.368 21.6664 17.6607 21.134 17.8071 20.5492H18.7878C19.1904 20.5492 19.5197 20.2117 19.5197 19.7993C19.5197 19.3869 19.1904 19.0495 18.7878 19.0495Z" fill="#5AAAF6"/>
<path d="M20.2376 10.1709C20.2376 10.4878 19.9867 10.745 19.6774 10.745H12.8152C12.5058 10.745 12.2549 10.4878 12.2549 10.1709C12.2549 9.854 12.5058 9.59709 12.8152 9.59709H19.6774C19.9867 9.59709 20.2376 9.854 20.2376 10.1709Z" fill="#5AAAF6"/>
<path d="M12.2549 9.02327C12.2549 9.02327 9.62917 4.14497 9.419 3.45146C9.20905 2.75795 10.0259 2.1122 11.1462 2.78178C12.2667 3.45146 14.4844 3.76231 15.2777 3.37976C16.0711 2.99699 18.4052 1.84923 19.1756 2.99699C19.9458 4.14498 20.4824 4.12081 21.2062 3.83401C21.9299 3.5471 22.6299 3.5471 22.3031 4.31231C21.9763 5.07752 20.2376 9.02327 20.2376 9.02327H12.2549Z" fill="#5AAAF6"/>
</svg>

<svg xmlns="http://www.w3.org/2000/svg" width="33" height="33" fill="#5aaaf6" xmlns:v="https://vecta.io/nano"><path fill-rule="evenodd" d="M6.221 18.971c1.634-4.304 6.208-7.652 6.208-7.652h7.749c4.155 3.635 6.582 6.935 6.909 10.33s-.747 8.991-11.437 8.848-11.063-7.222-9.43-11.526zm12.566.079h-.981a3.19 3.19 0 0 0-.424-1.05h1.405c.403 0 .732-.337.732-.75s-.329-.75-.732-.75h-5.723c-.402 0-.732.337-.732.75s.329.75.732.75h1.64c.688 0 1.288.45 1.559 1.05h-3.198c-.402 0-.732.337-.732.75s.329.75.732.75h3.198c-.095.172-.205.33-.337.472-.329.33-.768.51-1.222.502h-1.64c-.41.008-.739.345-.732.765 0 .202.088.397.227.54l4.091 3.967c.293.285.754.27 1.032-.03a.76.76 0 0 0-.029-1.057l-2.759-2.677a3.12 3.12 0 0 0 2.057-.937 3.38 3.38 0 0 0 .856-1.545h.981c.403 0 .732-.337.732-.75s-.329-.75-.732-.75z"/><path d="M20.238 10.171c0 .317-.251.574-.56.574h-6.862c-.309 0-.56-.257-.56-.574s.251-.574.56-.574h6.862c.309 0 .56.257.56.574zm-7.983-1.148L9.419 3.451c-.21-.694.607-1.339 1.727-.67s3.338.981 4.131.598 3.128-1.531 3.898-.383 1.307 1.124 2.031.837 1.424-.287 1.097.478l-2.065 4.711h-7.983z"/></svg>
